X:1
T:Csardas
T:Csardas
L:1/8
Q:1/4=90
M:4/4
K:F
V:1 treble nm="Violin" snm="Vln."
V:1
"^A" z4 z!mf! A,B,A, | A4 AFFG | FE B4 BB, | B,A,^CE GGFC | ED D/^C/D/E/ FA,B,A, |"^B" A4 AFFG | %6
 FE B4 BB, | B,A,D^C G3 E | EDD^C!<(! D2 z2!<)! |:[M:2/4]"^C"!f! .d.d' z .b | z .a z .f | %11
 .e d2 .^c | d4 | d/e/f/e/ d/e/f/e/ | d/e/f/e/ .d.f | .f e2 .^d | e4 | g/a/b/a/ g/a/b/a/ | %18
 g/a/b/a/ .g.b | f/g/a/g/ f/g/a/g/ | f/g/a/g/ .f.a | A/=B/^c/d/ e/f/g/a/ | _b/a/g/f/ .e.^c | %23
 .e d2 .^c | d2 z2 :|"^D" c/=B/c/e/ .gg/e/ | c/=B/c/e/ .gg/e/ | _B/A/B/c/ d/e/f/g/ | a4 | %29
 A/^G/_A/^c/ .ee/c/ | A/^G/A/^c/ .ee/c/ | A/^G/A/=B/ ^c/d/e/d/ | f4 | b/a/g/a/ b/a/g/a/ | %34
 b/a/g/a/ .b.g | a/g/f/g/ a/g/f/g/ | a/g/f/g/ .a.f | A/=B/^c/d/ e/f/g/a/ | b/a/g/f/ .e.^c | %39
 .e d2!>(! .^c | d2 z2!>)! ||[K:D]"^E"!pp! !///!d'2 !///!a2 | !///!=b!///!a !///!g!///!f | %43
 !///!f!///!e !///!e!///!g | !///!b4 | !///!b2 !///!a2 | !///!c'!///!b !///!b!///!g | %47
 !///!g!///!f !///!f!///!=f | !///!^f4 | !///!d'2 !///!a2 | !///!=b!///!a !///!g!///!f | %51
 !///!f!///!e !///!e!///!g | !///!b4 | !///!d'2 !///!a2 | !///!b!///!a !///!b!///!c | %55
 !///!e!///!d !///!d!///!c | !///!d4 ||[K:F]"^F"!f! c/=B/c/e/ gg/e/ | c/=B/c/e/ gg/e/ | %59
 _B/A/B/c/ d/e/f/g/ | a4 | A/^G/_A/^c/ ee/c/ | A/^G/A/^c/ ee/c/ | A/^G/A/=B/ ^c/d/e/d/ | f4 | %65
 b/a/g/a/ b/a/g/a/ | b/a/g/a/ bg | a/g/f/g/ a/g/f/g/ | a/g/f/g/ af | A/=B/^c/d/ e/f/g/a/ | %70
 =b/a/^g/a/ g/a/b/^c'/ ||[K:D]"^G" d'2 z2 | z4 | d d'2 b | b a2 f | e d2 c | d4 | %77
 d/e/f/e/ d/e/f/e/ | d/e/f/e/ df | f e2 ^d | e4 | g/a/b/a/ g/a/b/a/ | g/a/b/a/ gb | %83
 f/g/a/g/ f/g/a/g/ | f/g/a/g/ fa | e/f/^g/f/ e/f/g/f/ | e/f/^g/f/ eg | a a2 a | a a2 A | d d'2 b | %90
 b a2 f | e d2 c | d4 | d/e/f/e/ d/e/f/e/ | d/e/f/e/ df | f e2 ^d | e4 | g/a/b/a/ g/a/b/a/ | %98
 g/a/b/a/ gb | f/g/a/g/ f/g/a/g/ | f/g/a/g/ fa | e/^d/e/f/ g/f/g/a/ | b/a/^g/a/ g/a/b/c'/ | %103
 d'2 z2 | [Aa]2 z2 | [Dd]4 |] z4 | z4 | z4 | z4 | z4 | z4 | z4 | z4 | z4 | z4 | z4 | z4 | z4 | z4 | %120
 z4 | z4 | z4 | z4 | z4 | z4 | z4 | z4 | z4 | z4 | z4 | z4 | z4 | z4 | z4 | z4 | z4 | z4 | z4 | %139
 z4 | z4 | z4 | z4 | z4 | z4 | z4 | z4 | z4 | z4 | z4 | z4 | z4 | z4 | z4 | z4 | z4 | z4 | z4 | %158
 z4 | z4 | z4 | z4 | z4 | z4 | z4 | z4 | z4 | z4 | z4 | z4 | z4 | z4 | z4 | z4 | z4 | z4 | z4 | %177
 z4 | z4 | z4 | z4 | z4 | z4 | z4 | z4 | z4 | z4 | z4 | z4 | z4 | z4 | z4 | z4 | z4 | z4 | z4 | %196
 z4 | z4 | z4 | z4 | z4 | z4 | z4 | z4 | z4 | z4 | z4 | z4 | z4 |] %209

